X: 1
T: The Lame Duck
S: handwritten MS
R: jig
Z: 2005 John Chambers <jc:trillian.mit.edu>
M: 6/8
L: 1/8
K: G
   c \
| B2G A2G | ABA GED | EAA A2G | EAA ABc \
| B2G A2G | ABA GED | EGc BAB | G3  G2 :|
|: B \
| cde gfg | BAB GED | EAA A2G | EAA A2B \
| cde gfg | BAB GED | EGc BAB | G3  G2 :|
